public/img/home/solutions/icon-solutions-05.svg

<svg fill="none" height="87" viewBox="0 0 109 87" width="109" xmlns="http://www.w3.org/2000/svg"><g fill="#fff"><path d="m54.4778 20.3311c3.8721 0 7.0217-3.1755 7.0217-7.0794 0-3.90388-3.1506-7.07934-7.0217-7.07934-3.8712 0-7.0217 3.17546-7.0217 7.07934 0 3.9039 3.1495 7.0794 7.0217 7.0794zm0-13.20496c3.3494 0 6.0747 2.74774 6.0747 6.12466 0 3.3769-2.7253 6.1246-6.0747 6.1246s-6.0748-2.7477-6.0748-6.1246c0-3.37692 2.7254-6.12466 6.0748-6.12466z"/><path d="m98 32.3482c0-6.6039-5.3295-11.9772-11.8796-11.9772-1.981 0-3.8503.4917-5.4943 1.3605-3.1164-3.1726-6.7224-5.7255-10.7281-7.593-1.7272-6.96383-7.9857-12.1385-15.4203-12.1385-7.4345 0-13.6807 5.16417-15.4155 12.1175-4.0113 1.8627-7.623 4.4138-10.7442 7.5844-1.6307-.8497-3.4791-1.3309-5.4384-1.3309-6.5501 0-11.8796 5.3733-11.8796 11.9772 0 4.8157 2.8342 8.9764 6.909 10.8764-.1894 1.5304-.286 3.0885-.286 4.6381 0 5.0133.9745 9.8767 2.8949 14.4556 1.8551 4.4224 4.5113 8.3941 7.8938 11.8044 3.3826 3.4103 7.3219 6.0883 11.7082 7.9587 4.5417 1.9362 9.3655 2.9186 14.338 2.9186 4.9724 0 9.7963-.9824 14.3379-2.9186 4.3863-1.8704 8.3256-4.5484 11.7082-7.9587 3.3825-3.4103 6.0387-7.382 7.8938-11.8044 1.9205-4.5789 2.8949-9.4423 2.8949-14.4556 0-1.5372-.0957-3.0819-.2813-4.6 4.1184-1.8827 6.9895-6.0673 6.9895-10.9145zm-.947 0c0 3.1325-1.303 5.9642-3.392 7.973-1.3001-3.0007-4.2461-4.9713-7.5406-4.9713s-6.2414 1.9706-7.5406 4.9713c-2.0881-2.0088-3.3911-4.8405-3.3911-7.973 0-6.0778 4.9043-11.0224 10.9326-11.0224 6.0284 0 10.9327 4.9446 10.9327 11.0224zm-4.1448 8.6337c-1.8655 1.4941-4.2253 2.3878-6.7869 2.3878-2.5615 0-4.9213-.8937-6.7878-2.3878 1.0843-2.8117 3.7708-4.6773 6.7878-4.6773 3.0171 0 5.7036 1.8665 6.7869 4.6773zm-38.4305-38.02716c8.2424 0 14.9478 6.76048 14.9478 15.07046 0 4.3708-1.856 8.312-4.8134 11.0674-1.6808-4.1188-5.6666-6.8407-10.1344-6.8407-4.4677 0-8.4535 2.721-10.1343 6.8407-2.9574-2.7554-4.8134-6.6966-4.8134-11.0674 0-8.30998 6.7054-15.07046 14.9477-15.07046zm9.3749 26.79846c-2.5662 2.089-5.8275 3.3426-9.3758 3.3426s-6.8096-1.2536-9.3758-3.3426c1.4611-3.9297 5.1865-6.5466 9.3758-6.5466s7.9147 2.6169 9.3758 6.5466zm-51.9056 2.595c0-6.0778 4.9043-11.0224 10.9326-11.0224s10.9327 4.9446 10.9327 11.0224c0 3.1325-1.3031 5.9642-3.3921 7.973-1.2992-3.0007-4.2461-4.9713-7.5406-4.9713s-6.2414 1.9706-7.5406 4.9713c-2.0881-2.0088-3.392-4.8405-3.392-7.973zm17.7195 8.6337c-1.8655 1.4941-4.2254 2.3878-6.7878 2.3878-2.5625 0-4.9214-.8937-6.7878-2.3878 1.0842-2.8117 3.7707-4.6773 6.7878-4.6773 3.017 0 5.7035 1.8665 6.7878 4.6773zm60.6783 6.8808c0 19.9511-16.0993 36.1816-35.8869 36.1816-19.7877 0-35.8879-16.2305-35.8879-36.1816 0-1.4226.0824-2.8528.2462-4.2601 1.268.4669 2.6363.7218 4.0634.7218 6.5501 0 11.8796-5.3732 11.8796-11.9772 0-4.2762-2.2348-8.036-5.5889-10.1555 2.8314-2.8365 6.07-5.1556 9.6457-6.9027-.1525.8888-.233 1.8035-.233 2.7353 0 8.8361 7.1306 16.0252 15.8947 16.0252 8.7642 0 15.8948-7.1891 15.8948-16.0252 0-.9251-.0796-1.8312-.2292-2.7143 3.5729 1.7519 6.8077 4.0738 9.6353 6.9142-3.3248 2.1252-5.5369 5.8678-5.5369 10.123 0 6.604 5.3295 11.9772 11.8796 11.9772 1.3959 0 2.7358-.2444 3.9811-.6922.1609 1.3978.2433 2.8175.2433 4.2305z"/><path d="m86.1204 34.1773c2.9318 0 5.3172-2.405 5.3172-5.3609s-2.3854-5.3608-5.3172-5.3608-5.3172 2.4049-5.3172 5.3608 2.3854 5.3609 5.3172 5.3609zm0-9.766c2.41 0 4.3702 1.9763 4.3702 4.4061s-1.9602 4.4061-4.3702 4.4061-4.3702-1.9763-4.3702-4.4061 1.9602-4.4061 4.3702-4.4061z"/><path d="m22.8796 34.1773c2.9317 0 5.3171-2.405 5.3171-5.3609s-2.3854-5.3608-5.3171-5.3608c-2.9318 0-5.3172 2.4049-5.3172 5.3608s2.3854 5.3609 5.3172 5.3609zm0-9.766c2.41 0 4.3702 1.9763 4.3702 4.4061s-1.9602 4.4061-4.3702 4.4061c-2.4101 0-4.3703-1.9763-4.3703-4.4061s1.9602-4.4061 4.3703-4.4061z"/><path d="m72.1972 53.4173h-.8465l-.751-2.0203h.9063c1.106 0 2.0037-.9041 2.0037-2.0202s-.8968-2.0202-2.0037-2.0202h-2.4091l-2.1288-5.7313c-.0729-.1976-.2613-.3294-.4706-.3284h-24.0405c-.2093 0-.3977.1298-.4706.3284l-2.1288 5.7313h-2.409c-1.1061 0-2.0038.9041-2.0038 2.0202s.8968 2.0202 2.0038 2.0202h.9062l-.7509 2.0203h-.8466c-1.001 0-1.8135.8182-1.8135 1.8283v10.7961c0 .2788.2245.5051.501.5051v3.2413c0 .9987.803 1.8073 1.7926 1.8073h4.427c.9905 0 1.7926-.8096 1.7926-1.8073v-3.2413h22.0367v3.2413c0 .9987.803 1.8073 1.7926 1.8073h4.427c.9906 0 1.7926-.8096 1.7926-1.8073v-3.2413c.2765 0 .501-.2263.501-.5051v-10.7961c0-1.0092-.8116-1.8283-1.8135-1.8283zm-.6912-5.0496c.553 0 1.0018.4525 1.0018 1.0101 0 .5575-.4488 1.0101-1.0018 1.0101h-1.2822l-.751-2.0202zm-28.7033-6.0598h23.3491l4.1316 11.1094h-31.6123zm-5.3541 8.08c-.5531 0-1.0019-.4526-1.0019-1.0101 0-.5576.4488-1.0101 1.0019-1.0101h2.0331l-.751 2.0202zm-1.5019 8.079h3.696c.1714 0 .3106.1403.3106.3131v1.3939c0 .1728-.1392.3132-.3106.3132h-3.696zm6.5103 11.3212c0 .4411-.3541.7982-.7916.7982h-4.4271c-.4375 0-.7916-.3571-.7916-.7982v-3.2413h6.0103zm19.032-4.2524h-14.0235v-4.0395h14.0235zm11.0188 4.2524c0 .4411-.3541.7982-.7916.7982h-4.4271c-.4375 0-.7916-.3571-.7916-.7982v-3.2413h6.0103zm.5-9.302h-3.6959c-.1715 0-.3107-.1403-.3107-.3131v-1.3939c0-.1728.1392-.3132.3107-.3132h3.6959zm0-3.0294h-3.6959c-.7235.0029-1.3097.5939-1.3125 1.3233v1.3939c.0028.7294.589 1.3204 1.3125 1.3233h3.6959v4.0395h-10.5178v-4.5446c0-.2787-.2245-.505-.501-.505h-15.0254c-.2765 0-.5009.2263-.5009.505v4.5446h-10.5179v-4.0395h3.696c.7234-.0029 1.3096-.5939 1.3125-1.3233v-1.3939c-.0029-.7294-.5891-1.3204-1.3125-1.3233h-3.696v-2.2121c.0028-.4506.3646-.8153.8115-.8182h35.439c.447.0029.8087.3676.8116.8182v2.2121z"/></g></svg>

<svg width="109" height="87" viewBox="0 0 109 87" fill="none" xmlns="http://www.w3.org/2000/svg">
<path d="M54.4778 20.3311C58.3499 20.3311 61.4995 17.1556 61.4995 13.2517C61.4995 9.34782 58.3489 6.17236 54.4778 6.17236C50.6066 6.17236 47.4561 9.34782 47.4561 13.2517C47.4561 17.1556 50.6056 20.3311 54.4778 20.3311ZM54.4778 7.12614C57.8272 7.12614 60.5525 9.87388 60.5525 13.2508C60.5525 16.6277 57.8272 19.3754 54.4778 19.3754C51.1284 19.3754 48.403 16.6277 48.403 13.2508C48.403 9.87388 51.1284 7.12614 54.4778 7.12614Z" fill="white"/>
<path d="M98 32.3482C98 25.7443 92.6705 20.371 86.1204 20.371C84.1394 20.371 82.2701 20.8627 80.6261 21.7315C77.5097 18.5589 73.9037 16.006 69.898 14.1385C68.1708 7.17467 61.9123 2 54.4777 2C47.0432 2 40.797 7.16417 39.0622 14.1175C35.0509 15.9802 31.4392 18.5313 28.318 21.7019C26.6873 20.8522 24.8389 20.371 22.8796 20.371C16.3295 20.371 11 25.7443 11 32.3482C11 37.1639 13.8342 41.3246 17.909 43.2246C17.7196 44.755 17.623 46.3131 17.623 47.8627C17.623 52.876 18.5975 57.7394 20.5179 62.3183C22.373 66.7407 25.0292 70.7124 28.4117 74.1227C31.7943 77.533 35.7336 80.211 40.1199 82.0814C44.6616 84.0176 49.4854 85 54.4579 85C59.4303 85 64.2542 84.0176 68.7958 82.0814C73.1821 80.211 77.1214 77.533 80.504 74.1227C83.8865 70.7124 86.5427 66.7407 88.3978 62.3183C90.3183 57.7394 91.2927 52.876 91.2927 47.8627C91.2927 46.3255 91.197 44.7808 91.0114 43.2627C95.1298 41.38 98.0009 37.1954 98.0009 32.3482H98ZM97.053 32.3482C97.053 35.4807 95.75 38.3124 93.661 40.3212C92.3609 37.3205 89.4149 35.3499 86.1204 35.3499C82.8259 35.3499 79.879 37.3205 78.5798 40.3212C76.4917 38.3124 75.1887 35.4807 75.1887 32.3482C75.1887 26.2704 80.093 21.3258 86.1213 21.3258C92.1497 21.3258 97.054 26.2704 97.054 32.3482H97.053ZM92.9082 40.9819C91.0427 42.476 88.6829 43.3697 86.1213 43.3697C83.5598 43.3697 81.2 42.476 79.3335 40.9819C80.4178 38.1702 83.1043 36.3046 86.1213 36.3046C89.1384 36.3046 91.8249 38.1711 92.9082 40.9819ZM54.4777 2.95474C62.7201 2.95474 69.4255 9.71522 69.4255 18.0252C69.4255 22.396 67.5695 26.3372 64.6121 29.0926C62.9313 24.9738 58.9455 22.2519 54.4777 22.2519C50.01 22.2519 46.0242 24.9729 44.3434 29.0926C41.386 26.3372 39.53 22.396 39.53 18.0252C39.53 9.71522 46.2354 2.95474 54.4777 2.95474ZM63.8526 29.7532C61.2864 31.8422 58.0251 33.0958 54.4768 33.0958C50.9285 33.0958 47.6672 31.8422 45.101 29.7532C46.5621 25.8235 50.2875 23.2066 54.4768 23.2066C58.6661 23.2066 62.3915 25.8235 63.8526 29.7532ZM11.947 32.3482C11.947 26.2704 16.8513 21.3258 22.8796 21.3258C28.9079 21.3258 33.8123 26.2704 33.8123 32.3482C33.8123 35.4807 32.5092 38.3124 30.4202 40.3212C29.121 37.3205 26.1741 35.3499 22.8796 35.3499C19.5851 35.3499 16.6382 37.3205 15.339 40.3212C13.2509 38.3124 11.947 35.4807 11.947 32.3482ZM29.6665 40.9819C27.801 42.476 25.4411 43.3697 22.8787 43.3697C20.3162 43.3697 17.9573 42.476 16.0909 40.9819C17.1751 38.1702 19.8616 36.3046 22.8787 36.3046C25.8957 36.3046 28.5822 38.1711 29.6665 40.9819ZM90.3448 47.8627C90.3448 67.8138 74.2455 84.0443 54.4579 84.0443C34.6702 84.0443 18.57 67.8138 18.57 47.8627C18.57 46.4401 18.6524 45.0099 18.8162 43.6026C20.0842 44.0695 21.4525 44.3244 22.8796 44.3244C29.4297 44.3244 34.7592 38.9512 34.7592 32.3472C34.7592 28.071 32.5244 24.3112 29.1703 22.1917C32.0017 19.3552 35.2403 17.0361 38.816 15.289C38.6635 16.1778 38.583 17.0925 38.583 18.0243C38.583 26.8604 45.7136 34.0495 54.4777 34.0495C63.2419 34.0495 70.3725 26.8604 70.3725 18.0243C70.3725 17.0992 70.2929 16.1931 70.1433 15.31C73.7162 17.0619 76.951 19.3838 79.7786 22.2242C76.4538 24.3494 74.2417 28.092 74.2417 32.3472C74.2417 38.9512 79.5712 44.3244 86.1213 44.3244C87.5172 44.3244 88.8571 44.08 90.1024 43.6322C90.2633 45.03 90.3457 46.4497 90.3457 47.8627H90.3448Z" fill="white"/>
<path d="M86.1204 34.1773C89.0522 34.1773 91.4376 31.7723 91.4376 28.8164C91.4376 25.8605 89.0522 23.4556 86.1204 23.4556C83.1886 23.4556 80.8032 25.8605 80.8032 28.8164C80.8032 31.7723 83.1886 34.1773 86.1204 34.1773ZM86.1204 24.4113C88.5304 24.4113 90.4906 26.3876 90.4906 28.8174C90.4906 31.2472 88.5304 33.2235 86.1204 33.2235C83.7104 33.2235 81.7502 31.2472 81.7502 28.8174C81.7502 26.3876 83.7104 24.4113 86.1204 24.4113Z" fill="white"/>
<path d="M22.8796 34.1773C25.8113 34.1773 28.1967 31.7723 28.1967 28.8164C28.1967 25.8605 25.8113 23.4556 22.8796 23.4556C19.9478 23.4556 17.5624 25.8605 17.5624 28.8164C17.5624 31.7723 19.9478 34.1773 22.8796 34.1773ZM22.8796 24.4113C25.2896 24.4113 27.2498 26.3876 27.2498 28.8174C27.2498 31.2472 25.2896 33.2235 22.8796 33.2235C20.4695 33.2235 18.5093 31.2472 18.5093 28.8174C18.5093 26.3876 20.4695 24.4113 22.8796 24.4113Z" fill="white"/>
<path d="M72.1972 53.4173H71.3507L70.5997 51.397H71.506C72.612 51.397 73.5097 50.4929 73.5097 49.3768C73.5097 48.2607 72.6129 47.3566 71.506 47.3566H69.0969L66.9681 41.6253C66.8952 41.4277 66.7068 41.2959 66.4975 41.2969H42.457C42.2477 41.2969 42.0593 41.4267 41.9864 41.6253L39.8576 47.3566H37.4486C36.3425 47.3566 35.4448 48.2607 35.4448 49.3768C35.4448 50.4929 36.3416 51.397 37.4486 51.397H38.3548L37.6039 53.4173H36.7573C35.7563 53.4173 34.9438 54.2355 34.9438 55.2456V66.0417C34.9438 66.3205 35.1683 66.5468 35.4448 66.5468V69.7881C35.4448 70.7868 36.2478 71.5954 37.2374 71.5954H41.6644C42.6549 71.5954 43.457 70.7858 43.457 69.7881V66.5468H65.4937V69.7881C65.4937 70.7868 66.2967 71.5954 67.2863 71.5954H71.7133C72.7039 71.5954 73.5059 70.7858 73.5059 69.7881V66.5468C73.7824 66.5468 74.0069 66.3205 74.0069 66.0417V55.2456C74.0069 54.2364 73.1953 53.4173 72.1934 53.4173H72.1972ZM71.506 48.3677C72.059 48.3677 72.5078 48.8202 72.5078 49.3778C72.5078 49.9353 72.059 50.3879 71.506 50.3879H70.2238L69.4728 48.3677H71.506ZM42.8027 42.3079H66.1518L70.2834 53.4173H38.6711L42.8027 42.3079ZM37.4486 50.3879C36.8955 50.3879 36.4467 49.9353 36.4467 49.3778C36.4467 48.8202 36.8955 48.3677 37.4486 48.3677H39.4817L38.7307 50.3879H37.4486ZM35.9467 58.4669H39.6427C39.8141 58.4669 39.9533 58.6072 39.9533 58.78V60.1739C39.9533 60.3467 39.8141 60.4871 39.6427 60.4871H35.9467V58.4669ZM42.457 69.7881C42.457 70.2292 42.1029 70.5863 41.6654 70.5863H37.2383C36.8008 70.5863 36.4467 70.2292 36.4467 69.7881V66.5468H42.457V69.7881ZM61.489 65.5357H47.4655V61.4962H61.489V65.5357ZM72.5078 69.7881C72.5078 70.2292 72.1537 70.5863 71.7162 70.5863H67.2891C66.8516 70.5863 66.4975 70.2292 66.4975 69.7881V66.5468H72.5078V69.7881ZM73.0078 60.4861H69.3119C69.1404 60.4861 69.0012 60.3458 69.0012 60.173V58.7791C69.0012 58.6063 69.1404 58.4659 69.3119 58.4659H73.0078V60.4861ZM73.0078 57.4567H69.3119C68.5884 57.4596 68.0022 58.0506 67.9994 58.78V60.1739C68.0022 60.9033 68.5884 61.4943 69.3119 61.4972H73.0078V65.5367H62.49V60.9921C62.49 60.7134 62.2655 60.4871 61.989 60.4871H46.9636C46.6871 60.4871 46.4627 60.7134 46.4627 60.9921V65.5367H35.9448V61.4972H39.6408C40.3642 61.4943 40.9504 60.9033 40.9533 60.1739V58.78C40.9504 58.0506 40.3642 57.4596 39.6408 57.4567H35.9448V55.2446C35.9476 54.794 36.3094 54.4293 36.7563 54.4264H72.1953C72.6423 54.4293 73.004 54.794 73.0069 55.2446V57.4567H73.0078Z" fill="white"/>
</svg>
